packages/astro-components-stencil/src/icons/zoom-out.svg

<svg width="24" height="24" viewBox="0 0 24 24" fill="none" xmlns="http://www.w3.org/2000/svg">
<path fill-rule="evenodd" clip-rule="evenodd" d="M15.5 14H14.71L14.43 13.73C15.63 12.33 16.25 10.42 15.91 8.39002C15.44 5.61002 13.12 3.39002 10.32 3.05002C6.09002 2.53002 2.53002 6.09002 3.05002 10.32C3.39002 13.12 5.61002 15.44 8.39002 15.91C10.42 16.25 12.33 15.63 13.73 14.43L14 14.71V15.5L18.26 19.75C18.67 20.16 19.33 20.16 19.74 19.75L19.75 19.74C20.16 19.33 20.16 18.67 19.75 18.26L15.5 14ZM9.50002 14C7.01002 14 5.00002 11.99 5.00002 9.50002C5.00002 7.01002 7.01002 5.00002 9.50002 5.00002C11.99 5.00002 14 7.01002 14 9.50002C14 11.99 11.99 14 9.50002 14ZM12 9.50002C12 9.22002 11.78 9.00002 11.5 9.00002H7.50002C7.22002 9.00002 7.00002 9.22002 7.00002 9.50002C7.00002 9.78002 7.22002 10 7.50002 10H11.5C11.78 10 12 9.78002 12 9.50002Z" fill="black"/>
</svg>

<svg xmlns="http://www.w3.org/2000/svg" viewBox="0 0 24 24"><g xmlns="http://www.w3.org/2000/svg" id="zoom-out" fill-rule="nonzero">
            <path d="M15.5 14h-.79l-.28-.27a6.5 6.5 0 001.48-5.34c-.47-2.78-2.79-5-5.59-5.34a6.505 6.505 0 00-7.27 7.27c.34 2.8 2.56 5.12 5.34 5.59a6.5 6.5 0 005.34-1.48l.27.28v.79l4.26 4.25c.41.41 1.07.41 1.48 0l.01-.01c.41-.41.41-1.07 0-1.48L15.5 14zm-6 0C7.01 14 5 11.99 5 9.5S7.01 5 9.5 5 14 7.01 14 9.5 11.99 14 9.5 14zm-2-5h4c.28 0 .5.22.5.5s-.22.5-.5.5h-4c-.28 0-.5-.22-.5-.5s.22-.5.5-.5z"/>
        </g></svg>
